X:1
T:Title
%%score { ( 1 3 ) | ( 2 4 ) }
L:1/8
M:6/8
K:Eb
V:1 bass nm="Grand Piano"
V:3 bass 
V:2 bass 
V:4 bass 
V:1
 z3 z2[Q:1/4=100] B, | B,2 B, B,B,B, | B,2 G,[K:treble] z2 G | G2 G GGG | [FA]2 [EG] [EG] .[DF]2 | %5
 z6 | z3 z2 [EG] | [EG]2 [EG] [GB][GB][GB] | [EG]2 [DF] [EG][EG][EGB] | [EGe]2 [EBd] [EAc]2 [EAc] | %10
 [ce]d[EAc] [EGB]2 [EGB] | [EGe]2 [EBd] [EAc]2 [EAc] | [ce]d[EAc] [EGB]3 | [DFA]2 [DFA] A2 A | %14
 G2 G [B,EG]2 [EG] | [CEG][CFG][CEG] [CEA][CEA][CEA] | [EG]2 [DF] [EG]3 | [FA]2 [FA] [B,DFA]2 A | %18
 G2 G [B,EG]2 [EG] | [CEG][CEG][CEG] [CEA][CEA][CEA] | [B,EG]2 [B,DF] [B,EG]3 |] %21
V:2
 z6 | z6 | z3 z2 [E,E] | [E,E]2 [E,E] [E,E][E,E][E,E] | D,2 E, B,,B,,B, | B,2 B, B,B,B, | z3 B,3- | %7
 B,6- | B,6 | E,F,G, A,2 A, | .[A,E]3[K:bass] z3 | E,F,G, A,2 A, | .[A,E]3[K:bass] z3 | %13
 z3 .[B,DF]3 | [E,B,E]2 [E,B,E] z2 B, | C,C,C, A,,A,,A,, | [B,,B,]2 [B,,B,] [E,B,]3 | %17
 [B,,B,]2 [B,,B,] z2 [B,DF] | [E,B,E]2 [E,B,E] z2 B, | C,C,C, A,,A,,A,, | B,,2 B,, E,3 |] %21
V:3
 x6 | x6 | z3[K:treble] B,3- | B,6- | B,6 | x6 | x6 | x6 | x6 | x6 | x6 | x6 | x6 | x6 | x6 | x6 | %16
 x6 | x6 | x6 | x6 | x6 |] %21
V:4
 x6 | x6 | x6 | x6 | x6 | x6 | B,2 G, z2 E, | E,2 E, E,E,E, | B,,2 B,, E,E,E, | x6 | %10
 z B[K:bass]A, E,2 E, | x6 | z B[K:bass]A, E,3 | B,,2 B,, [B,,,D,]2- [B,,,D,B,DF] | z3 [E,,E,]3 | %15
 x6 | x6 | z3 [B,,,B,,]3 | z3 [E,,E,]3 | x6 | x6 |] %21

